X:38
T:Gan Ainm
R:Jig
S:Connie Connel, Cork and Denis McMahon, Kerry (fiddles)
D:"The Pure Drop"
M:6/8
Z:Bernie Stocks
K:D
|: A2B =cAG | AB=c A2B | ADD FED | ~G3 EFG | A2B =cAG | AGA d2e | 
fed edc |1 Add =cAG :|2 ABc d2e || ~f3 {a}fed | efg ecA | ~d3 {e}dcd | 
ecA ecA | ~f3 {a}fed | efg efg | (3.f.g.af gec |1 edc d2e :|2 edc d2B ||
<end>
<start>
